X: 66
T: Rheinländer-Hopsa
B:[[Notböcker/Melodier til gamle danske Almuedanse for Violin solo]]
O:Danmark
Z:Søren Bak Vestergaard
M: 2/4
L: 1/8
K: G
dcBd|g2 g2|BAGB|d2 d2|e2 AB|c2 c2|d2 GA|B2 B2|\
dcBd|g2 g2|BAGB|d2 d2|e2 AB|c2 BA|G2 B2|G2 z2:|\
|:[K: D]ABAF|ABAF|A2 df|a2 a2|b2 ef|g2 g2|a2 de|!upbow!f2 !upbow!f2|\
ABAF|ABAF|A2 df|a2 a2|b2 ef|g2 fe|d2 f2|d2 z2:|

